assets/svgs/extras/objects/Objects11.svg

<svg id="emoji" viewBox="0 0 72 72" xmlns="http://www.w3.org/2000/svg">
  <g id="color">
    <path fill="#fff" d="M22 16H50V22H23L18 18L22 16Z"/>
    <path fill="#A57939" fill-rule="evenodd" d="M50 21V21.6981V56C50 58.2091 48.2091 60 46 60H26C23.7909 60 22 58.2091 22 56V21.6981V21H50Z" clip-rule="evenodd"/>
    <path fill="#3F3F3F" d="M35.5 5C33.567 5 32 6.567 32 8.5C32 9.0368 32.1208 9.54537 32.3368 10H38.6632C38.8792 9.54537 39 9.0368 39 8.5C39 6.567 37.433 5 35.5 5Z"/>
    <path fill="#9B9B9A" d="M34 15.5L37 15.5V26L34 24V15.5Z"/>
    <path fill="#3F3F3F" fill-rule="evenodd" d="M50 16.5V15C50 13.3431 48.6569 12 47 12H25C23.3431 12 22 13.3431 22 15V16.5H50Z" clip-rule="evenodd"/>
    <path fill="#6A462F" fill-rule="evenodd" d="M50 56H22C22 58.2091 23.7909 60 26 60H46C48.2091 60 50 58.2091 50 56Z" clip-rule="evenodd"/>
    <path fill="#3F3F3F" fill-rule="evenodd" d="M50 46V50C57.732 50 64 43.732 64 36C64 28.268 57.732 22 50 22V26C55.5228 26 60 30.4772 60 36C60 41.5228 55.5228 46 50 46Z" clip-rule="evenodd"/>
    <path fill="none" stroke="#3F3F3F" stroke-linecap="round" stroke-width="2" d="M35.5 5C33.567 5 32 6.567 32 8.5C32 9.0368 32.1208 9.54537 32.3368 10H38.6632C38.8792 9.54537 39 9.0368 39 8.5C39 6.567 37.433 5 35.5 5Z"/>
  </g>
  <g id="line">
    <g id="line_2">
      <path fill="none" fill-rule="evenodd" stroke="#000" stroke-linejoin="round" stroke-width="2" d="M22 15C22 13.3431 23.3431 12 25 12H47C48.6569 12 50 13.3431 50 15V17V21.9556V24.6444V56C50 58.2091 48.2091 60 46 60H26C23.7909 60 22 58.2091 22 56V21.5L17.5 18L22 15.5V15Z" clip-rule="evenodd"/>
    </g>
    <path fill="#000" d="M50 50H49V51H50V50ZM50 46V45H49V46H50ZM50 22V21H49V22H50ZM50 26H49V27H50V26ZM51 50V46H49V50H51ZM63 36C63 43.1797 57.1797 49 50 49V51C58.2843 51 65 44.2843 65 36H63ZM50 23C57.1797 23 63 28.8203 63 36H65C65 27.7157 58.2843 21 50 21V23ZM51 26V22H49V26H51ZM50 27C54.9706 27 59 31.0294 59 36H61C61 29.9249 56.0751 25 50 25V27ZM59 36C59 40.9706 54.9706 45 50 45V47C56.0751 47 61 42.0751 61 36H59Z"/>
    <path fill="none" stroke="#000" stroke-linecap="round" stroke-width="2" d="M22 15.5H47"/>
    <path fill="none" stroke="#000" stroke-linecap="round" stroke-width="2" d="M32.3368 10C32.1208 9.54537 32 9.0368 32 8.5C32 6.567 33.567 5 35.5 5C37.433 5 39 6.567 39 8.5C39 9.0368 38.8792 9.54537 38.6632 10"/>
    <path fill="none" stroke="#000" stroke-linecap="round" stroke-width="2" d="M34 16L34 24"/>
    <line x1="37" x2="37" y1="16" y2="26" stroke="#000" stroke-linecap="round" stroke-width="2"/>
    <line x1="23" x2="31" y1="22" y2="22" stroke="#000" stroke-linecap="round" stroke-width="2"/>
    <path fill="none" stroke="#000" stroke-linecap="round" stroke-width="2" d="M40 22H50"/>
  </g>
</svg>

<svg xmlns="http://www.w3.org/2000/svg" viewBox="0 0 72 72"><path fill="#fff" d="M22 16h28v6H23l-5-4 4-2z"/><path fill="#A57939" fill-rule="evenodd" d="M50 21v35a4 4 0 01-4 4H26a4 4 0 01-4-4V21h28z" clip-rule="evenodd"/><path fill="#3F3F3F" d="M35.5 5a3.5 3.5 0 00-3.163 5h6.326A3.5 3.5 0 0035.5 5z"/><path fill="#9B9B9A" d="M34 15.5h3V26l-3-2v-8.5z"/><path fill="#3F3F3F" fill-rule="evenodd" d="M50 16.5V15a3 3 0 00-3-3H25a3 3 0 00-3 3v1.5h28z" clip-rule="evenodd"/><path fill="#6A462F" fill-rule="evenodd" d="M50 56H22a4 4 0 004 4h20a4 4 0 004-4z" clip-rule="evenodd"/><path fill="#3F3F3F" fill-rule="evenodd" d="M50 46v4c7.732 0 14-6.268 14-14s-6.268-14-14-14v4c5.523 0 10 4.477 10 10s-4.477 10-10 10z" clip-rule="evenodd"/><path fill="none" stroke="#3F3F3F" stroke-linecap="round" stroke-width="2" d="M35.5 5a3.5 3.5 0 00-3.163 5h6.326A3.5 3.5 0 0035.5 5z"/><g><path fill="none" stroke="#000" stroke-linejoin="round" stroke-width="2" d="M22 15a3 3 0 013-3h22a3 3 0 013 3v41a4 4 0 01-4 4H26a4 4 0 01-4-4V21.5L17.5 18l4.5-2.5V15z" clip-rule="evenodd"/><path d="M50 50h-1v1h1v-1zm0-4v-1h-1v1h1zm0-24v-1h-1v1h1zm0 4h-1v1h1v-1zm1 24v-4h-2v4h2zm12-14c0 7.18-5.82 13-13 13v2c8.284 0 15-6.716 15-15h-2zM50 23c7.18 0 13 5.82 13 13h2c0-8.284-6.716-15-15-15v2zm1 3v-4h-2v4h2zm-1 1a9 9 0 019 9h2c0-6.075-4.925-11-11-11v2zm9 9a9 9 0 01-9 9v2c6.075 0 11-4.925 11-11h-2z"/><path fill="none" stroke="#000" stroke-linecap="round" stroke-width="2" d="M22 15.5h25M32.337 10a3.5 3.5 0 116.326 0M34 16v8"/><path stroke="#000" stroke-linecap="round" stroke-width="2" d="M37 16v10M23 22h8"/><path fill="none" stroke="#000" stroke-linecap="round" stroke-width="2" d="M40 22h10"/></g></svg>
